src/16/actions/align-horizontal-top-out.svg

<svg xmlns="http://www.w3.org/2000/svg" width="16" height="16"><defs><style id="current-color-scheme" type="text/css"></style></defs><path d="M9 1v2h5V1H9zM1 4v2h14V4H1zm1 4v7h5V8H2zm7 0v5h5V8H9z" fill="currentColor" color="#565656"/></svg>

<svg xmlns="http://www.w3.org/2000/svg" width="16" height="16" viewBox="0 0 16 16">
 <defs>
  <style id="current-color-scheme" type="text/css">
   .ColorScheme-Text { color:#565656; } .ColorScheme-Highlight { color:#5294e2; }
  </style>
 </defs>
 <path style="fill:currentColor" class="ColorScheme-Text" d="M 9 1 L 9 3 L 14 3 L 14 1 L 9 1 z M 1 4 L 1 6 L 15 6 L 15 4 L 1 4 z M 2 8 L 2 15 L 7 15 L 7 8 L 2 8 z M 9 8 L 9 13 L 14 13 L 14 8 L 9 8 z"/>
</svg>
